X:1002
T:The Miller is canty.
M:C
L:1/8
Q:1/4=120
I: :: ::
Z:Jack Campin * www.campin.me.uk * 2009
K:G
f|g2 d<B c<Aaf |gddB   gdBf  |g2 d<B c<Aa>f|g>ed>B G2G:|
c|B<Gc>B A>FD>c|B>GB>G c>GB>G|A>cB>d A>FD>g|d<Bc>A G2G:|
<end>
<start>
